X:1
T:Title
%%score { 1 | 2 }
L:1/8
M:3/4
K:Eb
V:1 treble nm="Grand Piano"
V:2 bass 
V:1
 z2 z[Q:1/4=88] G GG | A3 G [DG][DF] | E3 E [EA][Ec] | [Ee]3 [Ec] [EA][Ec] |[M:3/8] B3 | GGG | %6
[M:3/4] A3 G [DG][DF] | E3 [Ec] [Ec][Ec] | [EB][EG] [DG]2 [DF]2 |[M:3/8] E3 | G[EG][DF] | %11
[M:3/4] [DF]3 [Dc] cB | B3 E [EA][Ec] | [Ee]3 [Ec] [EA][Ec] |[M:3/8] [EB]3 | [EG][EG][DF] | %16
[M:3/4] [DF]3 [Dc] cB | B3 [Ec] [Ec][Ec] | [EB][EG] [DG]2 [DF]2 |[M:3/8] [B,E]3 |] %20
V:2
 z2 z [E,B,E] [E,B,E][E,B,E] | [E,CE]3 [E,B,E] [B,,B,][B,,A,] | [E,G,]3 [_D,G,] [C,A,][A,,A,] | %3
 [A,,C]3 [A,,A,] [C,A,][A,,A,] |[M:3/8] [E,G,E]3 | [E,B,E][E,B,E][E,B,E] | %6
[M:3/4] [E,CE]3 [E,B,E] [B,,B,][B,,A,] | [C,G,]3 [A,,A,] [A,,A,][A,,A,] | %8
 [B,,G,][B,,B,] [B,,B,]2 [B,,A,]2 |[M:3/8] [E,G,]3 | [E,B,E][B,,B,][B,,B,] | %11
[M:3/4] [B,,B,]3 [B,,A,] [E,A,E][E,G,E] | [E,G,E]3 [_D,G,] [C,A,][A,,A,] | %13
 [A,,C]3 [A,,A,] [C,A,][A,,A,] |[M:3/8] [E,G,]3 | [E,B,][B,,B,][B,,B,] | %16
[M:3/4] [B,,B,]3 [B,,A,] [E,A,E][E,G,E] | [E,G,E]3 [A,,A,] [A,,A,][A,,A,] | %18
 [B,,G,][B,,B,] [B,,B,]2 [B,,A,]2 |[M:3/8] [E,G,]3 |] %20

